packages/bezier-icons/icons/send-forward-failed-filled.svg

<svg width="24" height="24" viewBox="0 0 24 24" fill="none" xmlns="http://www.w3.org/2000/svg">
<path fill-rule="evenodd" clip-rule="evenodd" d="M20.9186 5.01067L2.91896 5.01044C2.51795 5.00987 2.15509 5.24938 1.99896 5.61896C1.84147 5.98817 1.92039 6.41488 2.19803 6.70376L7.7478 12.4762L17.7177 7.45453L18.0687 8.06248L8.7452 14.2098L10.9214 21.9311C11.0307 22.3184 11.3609 22.6023 11.7599 22.6514C11.9807 22.6798 12.1992 22.6322 12.3836 22.5257C12.5175 22.4484 12.6342 22.34 12.7217 22.2066C11.6569 21.1238 11 19.6386 11 18C11 14.6863 13.6863 12 17 12C17.52 12 18.0245 12.0661 18.5057 12.1905L21.7846 6.51062C21.964 6.20147 21.9636 5.82068 21.7846 5.51064C21.6061 5.20147 21.2765 5.01068 20.9186 5.01067ZM15.7152 20.6991C16.1062 20.8861 16.5382 21.0001 17.0002 21.0001C18.6542 21.0001 20.0002 19.6541 20.0002 18.0001C20.0002 17.5381 19.8862 17.1061 19.6992 16.7151L15.7152 20.6991ZM18.2852 15.3011C17.8942 15.1131 17.4612 15.0001 17.0002 15.0001C15.3462 15.0001 14.0002 16.3461 14.0002 18.0001C14.0002 18.4621 14.1132 18.8941 14.3012 19.2851L18.2852 15.3011ZM12.0002 18.0001C12.0002 15.2381 14.2382 13.0001 17.0002 13.0001C19.7612 13.0001 22.0002 15.2381 22.0002 18.0001C22.0002 20.7611 19.7612 23.0001 17.0002 23.0001C14.2382 23.0001 12.0002 20.7611 12.0002 18.0001Z" fill="#313234"/>
</svg>

<svg xmlns="http://www.w3.org/2000/svg" width="24" height="24" fill="none" viewBox="0 0 24 24"><path fill="#313234" fill-rule="evenodd" d="M20.919 5.01h-18a1 1 0 0 0-.72 1.693l5.549 5.773 9.97-5.021.35.607-9.323 6.148 2.176 7.721a.998.998 0 0 0 1.463.595c.133-.078.25-.186.338-.32a6 6 0 0 1 5.784-10.016l3.279-5.68a1 1 0 0 0-.866-1.5M15.715 20.7c.391.186.823.3 1.285.3 1.654 0 3-1.346 3-3 0-.462-.114-.894-.3-1.285zm2.57-5.399a2.95 2.95 0 0 0-1.285-.3c-1.654 0-3 1.345-3 3 0 .461.113.893.301 1.284zM12 18.001a5 5 0 1 1 10 0 5 5 0 0 1-10 0" clip-rule="evenodd"/></svg>
